!!!Xfilter:transpose -t P8
!!!OTL-incipit: KA BAUER WAER ICH NIE BLEIBE
!!!ARE: Europa, Mitteleuropa, Deutschland, Kuhlaendchen
!!!SCT: Z0145
!!!YEM: Copyright 1995, estate of Helmut Schaffrath.
**kern	**text
*ICvox	*
*M3/8	*
*k[]	*
*C:	*
!LO:TX:a:t=Aus dem Kuhländchen.	!
{8g	Ka
=1	=1
4ee	Bau-
8ee	-er
=2	=2
8ee	waer
8dd	ich
8ee	nie
=3	=3
8ff	blei-
8dd;}	-be,
{8dd	's
=4	=4
4ee	komm
8ee	ſchon
=5	=5
8ff	wie
8ee	es
8dd	nur
=6	=6
4cc}	will.
{8cc	'S
=7	=7
4ee	Geld
8ee	ʒu-
=8	=8
8ee	-ſammen
8dd	.
8ee	muß
=9	=9
8ff	trei-
8dd;}	-be,
{8b	's_iſt
=10	=10
4g	gar
8cc	a
=11	=11
8ee	trau-
8ee	-ri-
8dd	-ges
=12	=12
4cc;}	Spiel.
{8g	Al-
=13	=13
4ee	-les
8ee	vom
=14	=14
8ee	Bau-
8dd	-er
8ee	thut
=15	=15
8ff	ha-
8dd;}	-be,
{8g	nie-
=16	=16
4dd	-mand
8dd	dem
=17	=17
8dd	Bauer
8cc	.
8dd	nix
=18	=18
8ee	ga-
8cc;}	-be,
{8cc	ob-
=19	=19
(8b/	-ſchon
8g)	.
8cc	der
=20	=20
8ff	Bauer
8ff	.
8ee	und
=21	=21
4dd;}	Bue,
{8cc	muß
=22	=22
8b/	bin-
8g	-den
8cc	mit
=23	=23
8ee	Bändern
8ee	.
8dd	die
=24	=24
4cc}	Schue.
==	==
!!!AGN: Erzaehlung, lustige Romanze
!!!ONB: ESAC (Essen Associative Code) Database: ZUCCAL
!!!AMT: simple triple
!!!AIN: vox
!!!EED: Helmut Schaffrath
!!!EEV: 1.0
!!!GTL: II. Erzahlungen, lustige Romanzen, Kinder-Lieder und episch-lyrische Volks-Lieder.
!!!URL-scan: https://www.digitale-sammlungen.de/de/view/bsb11160571?page=272
!!!ENC: Anna Maria Matuszewska
!!!EEV: 2025/01/28
*-	*-
